public/images/logos/ess-france.svg

<svg width="89" height="84" viewBox="0 0 89 84" fill="none" xmlns="http://www.w3.org/2000/svg">
<mask id="mask0_1686_68" style="mask-type:luminance" maskUnits="userSpaceOnUse" x="0" y="0" width="89" height="84">
<path d="M0 0H89V84H0V0Z" fill="white"/>
</mask>
<g mask="url(#mask0_1686_68)">
<path fill-rule="evenodd" clip-rule="evenodd" d="M31 51.6001C33.9144 58.7567 38.4702 65.1281 44.3 70.2001C50.8 76.2001 70.8 90.9001 84.3 80.2001C93.3 73.0001 88 56.9001 80.3 51.8001C79.7 51.4001 84.1 54.6001 84 63.6001C84 69.4001 80.4 75.3001 69 76.2001C62.3 76.7001 53 74.9001 46.2 69.6001C39.6963 64.9781 34.4674 58.7861 31 51.6001Z" fill="#C7E0EA"/>
<path fill-rule="evenodd" clip-rule="evenodd" d="M45 58.5001C52.1844 55.6314 58.5911 51.109 63.7 45.3001C69.7 38.8001 83.7 17.9001 72.8 4.40005C65.7 -4.49995 50.3 1.50005 45.3 9.40005C44.9 9.90005 48.1 5.40005 57.1 5.50005C62.9 5.60005 68.7 9.20005 69.7 20.5001C70.2 27.3001 68.4 36.6001 63 43.3001C53.7 55.3001 45 58.5001 45 58.5001Z" fill="#C7E0EA"/>
<path fill-rule="evenodd" clip-rule="evenodd" d="M58.7003 31C51.556 27.8917 43.7767 26.5209 36.0003 27C27.2003 27.4 1.90029 31.7 0.00028944 49C-1.29971 60.3 14.5003 67.4 23.6003 65.5C24.3003 65.4 18.9003 66.3 12.6003 59.8C8.60029 55.8 6.90029 49 14.3003 40.3C19.7093 34.1776 27.1155 30.1734 35.2003 29C50.2003 27.2 58.7003 31 58.7003 31Z" fill="#C7E0EA"/>
<path d="M4.80078 55.8001C4.80078 55.6409 4.864 55.4883 4.97652 55.3758C5.08904 55.2633 5.24165 55.2001 5.40078 55.2001H15.6008C15.9008 55.2001 16.1008 55.5001 16.1008 55.8001C16.0811 55.9256 16.0221 56.0417 15.9323 56.1315C15.8424 56.2214 15.7263 56.2804 15.6008 56.3001H6.00078V62.8001H14.6008C14.9008 62.8001 15.1008 63.1001 15.1008 63.4001C15.1008 63.7001 14.9008 63.9001 14.6008 63.9001H6.00078V70.6001C6.00078 70.9001 5.80078 71.2001 5.40078 71.2001C5.24165 71.2001 5.08904 71.1368 4.97652 71.0243C4.864 70.9118 4.80078 70.7592 4.80078 70.6001V55.8001ZM20.6008 60.0001C20.6008 59.7001 20.9008 59.5001 21.2008 59.5001C21.5008 59.5001 21.7008 59.7001 21.7008 60.0001V62.8001C22.7008 60.6001 24.7008 59.4001 26.4008 59.4001C26.7008 59.4001 27.0008 59.6001 27.0008 60.0001C27.0008 60.3001 26.7008 60.6001 26.4008 60.6001C23.9008 60.8001 21.7008 62.6001 21.7008 66.4001V70.6001C21.7008 71.0001 21.5008 71.2001 21.2008 71.2001C21.1181 71.2192 21.0319 71.217 20.9503 71.1937C20.8687 71.1703 20.7943 71.1266 20.7343 71.0665C20.6743 71.0065 20.6305 70.9322 20.6072 70.8506C20.5838 70.769 20.5816 70.6828 20.6008 70.6001V60.0001ZM29.9008 67.8001C29.9008 65.3001 31.9008 64.0001 34.9008 64.0001C36.6008 64.0001 37.7008 64.2001 38.8008 64.5001V64.0001C38.8008 61.6001 37.4008 60.4001 35.0008 60.4001C33.7008 60.4001 32.6008 60.7001 31.7008 61.2001C31.6024 61.2255 31.4992 61.2255 31.4008 61.2001C31.2682 61.2001 31.141 61.1474 31.0472 61.0536C30.9535 60.9598 30.9008 60.8327 30.9008 60.7001C30.9008 60.5001 31.1008 60.3001 31.2008 60.2001C32.3941 59.66 33.691 59.387 35.0008 59.4001C36.6008 59.4001 37.9008 59.8001 38.7008 60.6001C39.5008 61.4001 39.9008 62.5001 39.9008 63.9001V70.6001C39.9008 71.0001 39.7008 71.2001 39.3008 71.2001C39.0008 71.2001 38.8008 71.0001 38.8008 70.6001V69.2001C38.2998 69.8951 37.6378 70.4583 36.8715 70.8415C36.1052 71.2246 35.2574 71.4163 34.4008 71.4001C32.2008 71.4001 29.9008 70.2001 29.9008 67.8001ZM38.8008 66.8001V65.5001C37.8008 65.2001 36.5008 65.0001 34.8008 65.0001C32.4008 65.0001 31.1008 66.0001 31.1008 67.6001C31.1008 69.4001 32.7008 70.3001 34.4008 70.3001C36.8008 70.3001 38.8008 68.9001 38.8008 66.8001ZM45.0008 60.0001C45.0008 59.7001 45.2008 59.5001 45.5008 59.5001C45.9008 59.5001 46.1008 59.7001 46.1008 60.0001V61.7001C46.9008 60.4001 48.1008 59.3001 50.3008 59.3001C53.3008 59.3001 54.9008 61.3001 54.9008 64.0001V70.6001C54.9008 71.0001 54.7008 71.2001 54.4008 71.2001C54.3181 71.2192 54.2319 71.217 54.1503 71.1937C54.0687 71.1703 53.9943 71.1266 53.9343 71.0665C53.8743 71.0065 53.8305 70.9322 53.8072 70.8506C53.7838 70.769 53.7816 70.6828 53.8008 70.6001V64.2001C53.8008 61.9001 52.5008 60.3001 50.1008 60.3001C49.567 60.2999 49.0385 60.4066 48.5466 60.6138C48.0547 60.8211 47.6092 61.1247 47.2364 61.5068C46.8636 61.8889 46.5711 62.3417 46.3761 62.8386C46.181 63.3355 46.0874 63.8664 46.1008 64.4001V70.6001C46.1008 71.0001 45.9008 71.2001 45.6008 71.2001C45.5181 71.2192 45.4319 71.217 45.3503 71.1937C45.2687 71.1703 45.1943 71.1266 45.1343 71.0665C45.0743 71.0065 45.0305 70.9322 45.0072 70.8506C44.9838 70.769 44.9816 70.6828 45.0008 70.6001V60.0001ZM59.3008 65.4001C59.2875 64.6121 59.4297 63.8292 59.719 63.0962C60.0084 62.3632 60.4393 61.6944 60.9872 61.1279C61.5351 60.5614 62.1892 60.1085 62.9122 59.7948C63.6351 59.4812 64.4128 59.3131 65.2008 59.3001C67.2008 59.3001 68.5008 60.2001 69.5008 61.1001L69.7008 61.5001C69.7008 61.9001 69.4008 62.1001 69.1008 62.1001L68.7008 62.0001C68.2491 61.4853 67.6965 61.0687 67.0773 60.7763C66.458 60.4839 65.7853 60.3218 65.1008 60.3001C62.5008 60.3001 60.5008 62.5001 60.5008 65.3001C60.5008 68.1001 62.5008 70.3001 65.2008 70.3001C66.7008 70.3001 67.9008 69.6001 68.9008 68.7001L69.2008 68.5001C69.5008 68.5001 69.8008 68.8001 69.8008 69.1001C69.8008 69.1001 69.8008 69.3001 69.6008 69.4001C68.7794 70.2452 67.7274 70.8297 66.5759 71.0807C65.4244 71.3317 64.2245 71.2381 63.126 70.8114C62.0274 70.3848 61.0788 69.6441 60.3985 68.6818C59.7183 67.7194 59.3365 66.578 59.3008 65.4001ZM79.0008 71.4001C76.0008 71.4001 73.4008 69.0001 73.4008 65.4001C73.4008 62.0001 75.7008 59.3001 78.8008 59.3001C82.1008 59.3001 84.2008 62.0001 84.2008 65.3001C84.2008 65.5001 83.9008 65.8001 83.6008 65.8001H74.6008C74.7008 68.7001 76.8008 70.4001 79.1008 70.4001C80.7008 70.4001 81.9008 69.7001 82.8008 68.8001L83.2008 68.6001C83.5008 68.6001 83.7008 68.8001 83.7008 69.1001C83.7008 69.1777 83.6827 69.2542 83.648 69.3237C83.6133 69.3931 83.5629 69.4535 83.5008 69.5001C82.9299 70.1197 82.2329 70.6099 81.4566 70.9376C80.6804 71.2654 79.843 71.423 79.0008 71.4001ZM83.0008 64.8001C82.8008 62.5001 81.5008 60.3001 78.8008 60.3001C76.5008 60.3001 74.8008 62.3001 74.5008 64.8001H83.0008ZM60.1008 43.0001C60.3008 42.2001 60.7008 41.5001 61.3008 40.9001C62.0008 40.2001 62.8008 40.0001 63.6008 40.4001C64.1008 40.6001 64.9008 41.1001 66.1008 42.1001C68.8008 44.4001 71.4008 45.6001 73.6008 45.6001C75.4008 45.6001 76.8008 45.2001 78.0008 44.3001C78.6218 43.8343 79.1258 43.2304 79.4729 42.5361C79.8201 41.8419 80.0008 41.0763 80.0008 40.3001C80.0008 38.5001 79.0008 37.2001 77.0008 36.3001C76.4008 35.9001 74.2008 35.3001 70.5008 34.3001C68.1551 33.7454 65.9447 32.7252 64.0008 31.3001C62.0008 29.5001 61.0008 27.2001 61.0008 24.1001C61.0008 21.1001 62.5008 18.3001 65.4008 15.8001C68.2008 13.5001 71.4008 12.5001 75.0008 12.6001C76.7045 12.6437 78.3795 13.0497 79.9141 13.7912C81.4487 14.5326 82.8077 15.5924 83.9008 16.9001C84.5008 17.5001 84.8008 18.4001 84.7008 19.3001C84.7008 20.3001 84.4008 21.0001 83.7008 21.7001C82.9008 22.2001 82.2008 22.4001 81.4008 22.2001C80.9008 22.0001 80.2008 21.7001 79.4008 21.1001C77.2008 19.5001 75.4008 18.6001 74.0008 18.5001C72.4735 18.4143 70.9711 18.9151 69.8008 19.9001C69.17 20.4019 68.6619 21.0411 68.3154 21.7689C67.9688 22.4967 67.7928 23.294 67.8008 24.1001C67.8008 26.0001 68.8008 27.4001 70.8008 28.2001C71.4008 28.5001 73.5008 29.0001 77.3008 29.9001C80.3008 30.6001 82.5008 31.6001 83.8008 32.8001C85.8008 34.5001 86.8008 37.0001 86.8008 40.3001C86.8008 43.4001 85.4008 46.2001 82.5008 48.6001C80.1008 50.6001 77.2008 51.7001 73.9008 51.8001C71.3762 51.7431 68.8908 51.1643 66.6008 50.1001C64.2608 49.1175 62.2244 47.5298 60.7008 45.5001C60.2008 44.7001 60.0008 43.9001 60.2008 43.0001H60.1008Z" fill="#00618B"/>
<path d="M31.1002 43.0001C31.3002 42.2001 31.6002 41.5001 32.3002 40.9001C33.0002 40.2001 33.7002 40.0001 34.5002 40.4001C35.0002 40.6001 35.9002 41.1001 37.0002 42.1001C39.8002 44.4001 42.3002 45.6001 44.6002 45.6001C46.3002 45.6001 47.7002 45.2001 48.9002 44.3001C49.5212 43.8343 50.0252 43.2304 50.3723 42.5361C50.7195 41.8419 50.9002 41.0763 50.9002 40.3001C50.9002 38.5001 49.9002 37.2001 47.9002 36.3001C47.3002 35.9001 45.2002 35.3001 41.4002 34.3001C39.0545 33.7454 36.8441 32.7252 34.9002 31.3001C32.9002 29.5001 31.9002 27.2001 31.9002 24.1001C31.9002 21.1001 33.4002 18.3001 36.3002 15.8001C39.1002 13.5001 42.3002 12.5001 45.9002 12.6001C47.621 12.6295 49.3152 13.0287 50.8681 13.7707C52.421 14.5126 53.7961 15.5799 54.9002 16.9001C55.4002 17.5001 55.7002 18.4001 55.7002 19.3001C55.7002 20.3001 55.3002 21.0001 54.6002 21.7001C53.9002 22.2001 53.1002 22.4001 52.4002 22.2001C51.8002 22.0001 51.1002 21.7001 50.3002 21.1001C48.1002 19.5001 46.3002 18.6001 44.9002 18.5001C43.3729 18.4143 41.8705 18.9151 40.7002 19.9001C40.0877 20.4119 39.5986 21.0554 39.2697 21.7827C38.9407 22.5099 38.7802 23.3021 38.8002 24.1001C38.8002 26.0001 39.8002 27.4001 41.8002 28.2001C42.3002 28.5001 44.5002 29.0001 48.3002 29.9001C51.3002 30.6001 53.4002 31.6001 54.8002 32.8001C56.8002 34.5001 57.8002 37.0001 57.8002 40.3001C57.8002 43.4001 56.3002 46.2001 53.5002 48.6001C51.0002 50.6001 48.2002 51.7001 44.9002 51.8001C42.3418 51.757 39.8209 51.1778 37.5002 50.1001C35.1966 49.1024 33.1962 47.5159 31.7002 45.5001C31.1002 44.7001 31.0002 43.9001 31.1002 43.0001Z" fill="#009FE3"/>
<path d="M9.00061 35.0001V38.7001C8.97394 40.2014 9.45233 41.6681 10.359 42.8649C11.2657 44.0618 12.5482 44.9194 14.0006 45.3001C15.5006 45.7001 16.8006 45.6001 18.0006 44.9001C19.4318 44.2063 20.5416 42.9891 21.1006 41.5001C21.6006 40.5001 22.3006 40.0001 23.1006 39.7001C23.9006 39.4001 24.7006 39.5001 25.5006 39.8001C26.3006 40.2001 26.9006 40.8001 27.3006 41.5001C27.6006 42.4001 27.6006 43.3001 27.1006 44.2001C25.8508 46.9155 23.7099 49.1219 21.0332 50.4528C18.3566 51.7837 15.3053 52.1592 12.3859 51.517C9.46646 50.8747 6.85448 49.2533 4.98358 46.9219C3.11268 44.5905 2.0954 41.6893 2.10061 38.7001V25.7001C2.10061 22.1001 3.50061 19.0001 6.10061 16.4001C8.60061 13.9001 11.7006 12.6001 15.3006 12.6001C18.9006 12.6001 22.0006 13.9001 24.5006 16.4001C27.1006 19.0001 28.3006 22.1001 28.3006 25.7001V31.6001C28.3006 32.6001 28.0006 33.3001 27.3006 34.0001C26.9928 34.3255 26.6202 34.5826 26.2067 34.7548C25.7933 34.9271 25.3484 35.0106 24.9006 35.0001H9.00061ZM9.00061 29.0001H21.5006V25.7001C21.5161 24.8828 21.3645 24.0708 21.055 23.3142C20.7454 22.5576 20.2846 21.8722 19.7006 21.3001C19.1371 20.698 18.4556 20.2186 17.6986 19.8917C16.9415 19.5648 16.1252 19.3974 15.3006 19.4001C13.6006 19.4001 12.1006 20.1001 10.9006 21.3001C9.70061 22.5001 9.00061 24.0001 9.00061 25.7001V29.0001Z" fill="#82D0F5"/>
</g>
</svg>

<svg fill="none" xmlns="http://www.w3.org/2000/svg"><g clip-path="url(#a)" fill="#00618b"><g opacity=".3" fill-rule="evenodd" clip-rule="evenodd"><path opacity=".3" d="M31 51.6a49.3 49.3 0 0 0 13.3 18.6c6.5 6 26.5 20.7 40 10 9-7.2 3.7-23.3-4-28.4-.6-.4 3.8 2.8 3.7 11.8 0 5.8-3.6 11.7-15 12.6-6.7.5-16-1.3-22.8-6.6a47.3 47.3 0 0 1-15.2-18z"/><path opacity=".3" d="M45 58.5a49.2 49.2 0 0 0 18.7-13.2c6-6.5 20-27.4 9.1-40.9-7.1-8.9-22.5-2.9-27.5 5-.4.5 2.8-4 11.8-3.9 5.8.1 11.6 3.7 12.6 15 .5 6.8-1.3 16.1-6.7 22.8-9.3 12-18 15.2-18 15.2z"/><path opacity=".3" d="M58.7 31A49.3 49.3 0 0 0 36 27c-8.8.4-34.1 4.7-36 22-1.3 11.3 14.5 18.4 23.6 16.5.7-.1-4.7.8-11-5.7-4-4-5.7-10.8 1.7-19.5A34.5 34.5 0 0 1 35.2 29c15-1.8 23.5 2 23.5 2z"/></g><path d="M4.8 55.8a.6.6 0 0 1 .6-.6h10.2c.3 0 .5.3.5.6a.6.6 0 0 1-.5.5H6v6.5h8.6c.3 0 .5.3.5.6s-.2.5-.5.5H6v6.7c0 .3-.2.6-.6.6a.6.6 0 0 1-.6-.6V55.8zM20.6 60c0-.3.3-.5.6-.5s.5.2.5.5v2.8c1-2.2 3-3.4 4.7-3.4.3 0 .6.2.6.6 0 .3-.3.6-.6.6-2.5.2-4.7 2-4.7 5.8v4.2c0 .4-.2.6-.5.6a.5.5 0 0 1-.6-.6V60zm9.3 7.8c0-2.5 2-3.8 5-3.8 1.7 0 2.8.2 3.9.5V64c0-2.4-1.4-3.6-3.8-3.6-1.3 0-2.4.3-3.3.8a.6.6 0 0 1-.3 0 .5.5 0 0 1-.5-.5c0-.2.2-.4.3-.5a9 9 0 0 1 3.8-.8c1.6 0 2.9.4 3.7 1.2.8.8 1.2 1.9 1.2 3.3v6.7c0 .4-.2.6-.6.6-.3 0-.5-.2-.5-.6v-1.4a5.3 5.3 0 0 1-4.4 2.2c-2.2 0-4.5-1.2-4.5-3.6zm8.9-1v-1.3c-1-.3-2.3-.5-4-.5-2.4 0-3.7 1-3.7 2.6 0 1.8 1.6 2.7 3.3 2.7 2.4 0 4.4-1.4 4.4-3.5zM45 60c0-.3.2-.5.5-.5.4 0 .6.2.6.5v1.7c.8-1.3 2-2.4 4.2-2.4 3 0 4.6 2 4.6 4.7v6.6c0 .4-.2.6-.5.6a.5.5 0 0 1-.6-.6v-6.4c0-2.3-1.3-3.9-3.7-3.9a4 4 0 0 0-4 4.1v6.2c0 .4-.2.6-.5.6a.5.5 0 0 1-.6-.6V60zm14.3 5.4a6 6 0 0 1 5.9-6.1c2 0 3.3.9 4.3 1.8l.2.4c0 .4-.3.6-.6.6l-.4-.1a5 5 0 0 0-3.6-1.7c-2.6 0-4.6 2.2-4.6 5s2 5 4.7 5c1.5 0 2.7-.7 3.7-1.6l.3-.2c.3 0 .6.3.6.6 0 0 0 .2-.2.3a6 6 0 0 1-10.3-4zm19.7 6c-3 0-5.6-2.4-5.6-6 0-3.4 2.3-6.1 5.4-6.1 3.3 0 5.4 2.7 5.4 6 0 .2-.3.5-.6.5h-9c.1 2.9 2.2 4.6 4.5 4.6 1.6 0 2.8-.7 3.7-1.6l.4-.2c.3 0 .5.2.5.5a.5.5 0 0 1-.2.4 5.9 5.9 0 0 1-4.5 1.9zm4-6.6c-.2-2.3-1.5-4.5-4.2-4.5-2.3 0-4 2-4.3 4.5H83zM9 35v3.7a6.7 6.7 0 0 0 5 6.6c1.5.4 2.8.3 4-.4a6.2 6.2 0 0 0 3.1-3.4c.5-1 1.2-1.5 2-1.8.8-.3 1.6-.2 2.4.1.8.4 1.4 1 1.8 1.7.3.9.3 1.8-.2 2.7a13.1 13.1 0 0 1-25-5.5v-13c0-3.6 1.4-6.7 4-9.3 2.5-2.5 5.6-3.8 9.2-3.8 3.6 0 6.7 1.3 9.2 3.8 2.6 2.6 3.8 5.7 3.8 9.3v5.9c0 1-.3 1.7-1 2.4a3.2 3.2 0 0 1-2.4 1H9zm0-6h12.5v-3.3a6 6 0 0 0-1.8-4.4 6 6 0 0 0-4.4-1.9c-1.7 0-3.2.7-4.4 1.9S9 24 9 25.7V29zm22.1 14c.2-.8.5-1.5 1.2-2.1.7-.7 1.4-.9 2.2-.5.5.2 1.4.7 2.5 1.7 2.8 2.3 5.3 3.5 7.6 3.5 1.7 0 3.1-.4 4.3-1.3a5 5 0 0 0 2-4c0-1.8-1-3.1-3-4-.6-.4-2.7-1-6.5-2a18 18 0 0 1-6.5-3c-2-1.8-3-4.1-3-7.2 0-3 1.5-5.8 4.4-8.3 2.8-2.3 6-3.3 9.6-3.2a12 12 0 0 1 9 4.3c.5.6.8 1.5.8 2.4 0 1-.4 1.7-1.1 2.4-.7.5-1.5.7-2.2.5-.6-.2-1.3-.5-2.1-1.1-2.2-1.6-4-2.5-5.4-2.6a6 6 0 0 0-4.2 1.4 5.3 5.3 0 0 0-1.9 4.2c0 1.9 1 3.3 3 4.1.5.3 2.7.8 6.5 1.7 3 .7 5.1 1.7 6.5 2.9 2 1.7 3 4.2 3 7.5 0 3.1-1.5 5.9-4.3 8.3-2.5 2-5.3 3.1-8.6 3.2a18.3 18.3 0 0 1-7.4-1.7 14.3 14.3 0 0 1-5.8-4.6c-.6-.8-.7-1.6-.6-2.5zm29 0c.2-.8.6-1.5 1.2-2.1.7-.7 1.5-.9 2.3-.5.5.2 1.3.7 2.5 1.7 2.7 2.3 5.3 3.5 7.5 3.5 1.8 0 3.2-.4 4.4-1.3a5 5 0 0 0 2-4c0-1.8-1-3.1-3-4-.6-.4-2.8-1-6.5-2a18 18 0 0 1-6.5-3c-2-1.8-3-4.1-3-7.2 0-3 1.5-5.8 4.4-8.3 2.8-2.3 6-3.3 9.6-3.2a12 12 0 0 1 8.9 4.3c.6.6.9 1.5.8 2.4 0 1-.3 1.7-1 2.4-.8.5-1.5.7-2.3.5-.5-.2-1.2-.5-2-1.1-2.2-1.6-4-2.5-5.4-2.6a6 6 0 0 0-4.2 1.4 5.3 5.3 0 0 0-2 4.2c0 1.9 1 3.3 3 4.1.6.3 2.7.8 6.5 1.7 3 .7 5.2 1.7 6.5 2.9 2 1.7 3 4.2 3 7.5 0 3.1-1.4 5.9-4.3 8.3-2.4 2-5.3 3.1-8.6 3.2a18.3 18.3 0 0 1-7.3-1.7 14.3 14.3 0 0 1-5.9-4.6c-.5-.8-.7-1.6-.5-2.5z"/></g><defs><clipPath id="a"><path fill="#fff" d="M0 0h89v84H0z"/></clipPath></defs></svg>
